src/symbolic/actions/twitter-mentions-symbolic.svg

<svg xmlns="http://www.w3.org/2000/svg" width="16" height="16"><path d="M11.1 1.07a1.27 1.27 0 0 0-1.57.65 4.455 4.455 0 0 0-4.46 2.95c-.61 1.74-1.84 3.97-2.48 4.09a.7.7 0 0 0-.29.34c-.12.33.06.7.39.82l9.3 3.33c.33.12.69-.06.81-.39.06-.15.05-.31-.01-.45-.41-.49.05-3 .68-4.73.69-1.91-.01-3.98-1.57-5.11.14-.63-.18-1.27-.8-1.5zM6.74 12.72c-.3.83.27 1.79 1.26 2.15 1 .35 2.04-.03 2.34-.86z" fill="#5d656b"/></svg>

<svg xmlns="http://www.w3.org/2000/svg" width="16" height="16" version="1.1">
 <path style="fill:#444444" d="M 11.1,1.07 C 10.48,0.85 9.81,1.14 9.53,1.72 7.6,1.6 5.76,2.76 5.07,4.67 4.46,6.41 3.23,8.64 2.59,8.76 2.47,8.83 2.36,8.95 2.3,9.1 2.18,9.43 2.36,9.8 2.69,9.92 L 11.99,13.25 C 12.32,13.37 12.68,13.19 12.8,12.86 12.86,12.71 12.85,12.55 12.79,12.41 12.38,11.92 12.84,9.41 13.47,7.68 14.16,5.77 13.46,3.7 11.9,2.57 12.04,1.94 11.72,1.3 11.1,1.07 Z M 6.74,12.72 C 6.44,13.55 7.01,14.51 8,14.87 9,15.22 10.04,14.84 10.34,14.01 Z"/>
</svg>
